src/assets/icons/bocha.svg

<svg xmlns="http://www.w3.org/2000/svg" width="512" height="512" fill="none" viewBox="0 0 512 512"><path fill="#fff" d="M0 0h512v512H0z"/><path fill="#a5ccff" fill-rule="evenodd" d="M76.653 112.652c38.908-18.969 85.82-2.809 104.807 36.104l40.538 83.082c9.485 19.439 1.423 42.89-18.007 52.379l-.024.012c-19.454 9.484-42.91 1.404-52.404-18.052z" clip-rule="evenodd"/><path fill="#a5ccff" fill-rule="evenodd" d="M36 191.819c30.612-30.599 80.214-30.599 110.826 0l67.792 67.764c15.289 15.282 15.3 40.07.024 55.366l-.024.024c-15.305 15.299-40.107 15.299-55.413 0z" clip-rule="evenodd" opacity=".648"/><path fill="#006eff" fill-rule="evenodd" d="M316.854 126.333c87.482 0 158.399 70.889 158.399 158.334 0 42.693-21.949 86.073-49.432 114.55l-11.379-13.641a93.77 93.77 0 0 1-18.589-84.267q2.136-8.004 2.137-14.707c0-45.103-36.579-81.667-81.701-81.667s-81.7 36.564-81.7 81.667 36.579 81.667 81.7 81.667a81.7 81.7 0 0 0 24.26-3.661 66.05 66.05 0 0 1 65.34 15.457l19.932 19.152C397.52 425.628 358.626 443 316.854 443c-87.481 0-158.398-70.888-158.398-158.333s70.917-158.334 158.398-158.334" clip-rule="evenodd"/><path fill="#006eff" fill-rule="evenodd" d="M158.456 68c43.28 0 78.365 35.102 78.365 78.401v56.531c0 43.3-35.085 78.401-78.365 78.401z" clip-rule="evenodd"/></svg>

<svg width="512" height="512" viewBox="0 0 512 512" fill="none" xmlns="http://www.w3.org/2000/svg">
<rect width="512" height="512" fill="white"/>
<path fill-rule="evenodd" clip-rule="evenodd" d="M76.6531 112.652C115.561 93.683 162.473 109.843 181.46 148.756L221.998 231.838C231.483 251.277 223.421 274.728 203.991 284.217C203.983 284.221 203.975 284.225 203.967 284.229C184.513 293.713 161.057 285.633 151.563 266.177L76.6531 112.652Z" fill="#A5CCFF"/>
<path opacity="0.64774" fill-rule="evenodd" clip-rule="evenodd" d="M36 191.819C66.6115 161.22 116.214 161.22 146.826 191.819L214.618 259.583C229.907 274.865 229.918 299.653 214.642 314.949C214.634 314.957 214.626 314.965 214.618 314.973C199.313 330.272 174.511 330.272 159.205 314.973L36 191.819Z" fill="#A5CCFF"/>
<path fill-rule="evenodd" clip-rule="evenodd" d="M316.854 126.333C404.336 126.333 475.253 197.222 475.253 284.667C475.253 327.36 453.304 370.74 425.821 399.217L414.442 385.576C394.921 362.18 387.989 330.751 395.853 301.309C397.277 295.973 397.99 291.071 397.99 286.602C397.99 241.499 361.411 204.935 316.289 204.935C271.168 204.935 234.589 241.499 234.589 286.602C234.589 331.705 271.168 368.269 316.289 368.269C324.737 368.269 332.884 366.987 340.549 364.608C363.517 357.479 388.544 363.399 405.889 380.065L425.821 399.217C397.52 425.628 358.626 443 316.854 443C229.373 443 158.456 372.112 158.456 284.667C158.456 197.222 229.373 126.333 316.854 126.333Z" fill="#006EFF"/>
<path fill-rule="evenodd" clip-rule="evenodd" d="M158.456 68C201.736 68 236.821 103.102 236.821 146.401V202.932C236.821 246.232 201.736 281.333 158.456 281.333V68Z" fill="#006EFF"/>
</svg>
